X:4
M:2/4
L:1/8
Q:1/4=100
K:A
|:c/d/e/f/ ef/g/|{b/}ag/f/ e2|c/d/f/g/ {f}ed/c/|B/A/B/c/ BE|\
c/d/e/f/ ef/g/|{b/}ag/f/ e2|c/d/f/g/ {f}ed/c/|B/A/B/c/ A2:|

